coldTypeLogo.svg

<?xml version="1.0" encoding="UTF-8" standalone="no"?><!DOCTYPE svg PUBLIC "-//W3C//DTD SVG 1.1//EN" "http://www.w3.org/Graphics/SVG/1.1/DTD/svg11.dtd"><svg width="50px" height="50px" viewBox="0 0 50 50" version="1.1" xmlns="http://www.w3.org/2000/svg" xmlns:xlink="http://www.w3.org/1999/xlink" xml:space="preserve" xmlns:serif="http://www.serif.com/" style="fill-rule:evenodd;clip-rule:evenodd;stroke-linejoin:round;stroke-miterlimit:1.5;"><g><path d="M30.862,21.117c-0.159,-0.62 -0.379,-1.19 -0.659,-1.71c-0.28,-0.519 -0.64,-0.969 -1.08,-1.349c-0.44,-0.38 -0.954,-0.675 -1.544,-0.885c-0.59,-0.21 -1.275,-0.314 -2.054,-0.314c-1.14,0 -2.124,0.229 -2.954,0.689c-0.83,0.46 -1.504,1.075 -2.024,1.844c-0.52,0.77 -0.905,1.645 -1.155,2.624c-0.249,0.98 -0.374,1.979 -0.374,2.999c0,1.02 0.125,2.019 0.374,2.999c0.25,0.979 0.635,1.854 1.155,2.624c0.52,0.769 1.194,1.384 2.024,1.844c0.83,0.46 1.814,0.689 2.954,0.689c0.839,0 1.579,-0.144 2.219,-0.434c0.64,-0.29 1.189,-0.69 1.649,-1.2c0.46,-0.51 0.82,-1.104 1.08,-1.784c0.26,-0.68 0.429,-1.409 0.509,-2.189l3.659,0c-0.08,1.279 -0.355,2.449 -0.825,3.508c-0.47,1.06 -1.104,1.975 -1.904,2.744c-0.8,0.77 -1.739,1.365 -2.819,1.784c-1.079,0.42 -2.269,0.63 -3.568,0.63c-1.6,0 -3.034,-0.295 -4.303,-0.884c-1.27,-0.59 -2.344,-1.395 -3.224,-2.414c-0.88,-1.02 -1.554,-2.209 -2.024,-3.569c-0.47,-1.359 -0.705,-2.809 -0.705,-4.348c0,-1.519 0.235,-2.959 0.705,-4.318c0.47,-1.36 1.144,-2.549 2.024,-3.569c0.88,-1.019 1.954,-1.829 3.224,-2.429c1.269,-0.599 2.703,-0.899 4.303,-0.899c1.199,0 2.329,0.165 3.388,0.495c1.06,0.329 1.994,0.809 2.804,1.439c0.81,0.63 1.464,1.394 1.964,2.294c0.5,0.9 0.81,1.929 0.93,3.089l-3.749,0Z" style="fill-rule:nonzero;"/><path d="M15.419,45.674l19.162,0" style="fill:none;stroke:#000;stroke-width:2px;"/></g></svg>

<?xml version="1.0" encoding="UTF-8" standalone="no"?>
<!DOCTYPE svg PUBLIC "-//W3C//DTD SVG 1.1//EN" "http://www.w3.org/Graphics/SVG/1.1/DTD/svg11.dtd">
<svg width="100%" height="100%" viewBox="0 0 1000 1000" version="1.1" xmlns="http://www.w3.org/2000/svg" xmlns:xlink="http://www.w3.org/1999/xlink" xml:space="preserve" xmlns:serif="http://www.serif.com/" style="fill-rule:evenodd;clip-rule:evenodd;stroke-linejoin:round;stroke-miterlimit:1.5;">
    <g transform="matrix(24.7442,0,0,24.7442,-117.491,-118.605)">
        <g transform="matrix(1,0,0,1,0,-4.737)">
            <path d="M30.862,21.117C30.703,20.497 30.483,19.927 30.203,19.407C29.923,18.888 29.563,18.438 29.123,18.058C28.683,17.678 28.169,17.383 27.579,17.173C26.989,16.963 26.304,16.859 25.525,16.859C24.385,16.859 23.401,17.088 22.571,17.548C21.741,18.008 21.067,18.623 20.547,19.392C20.027,20.162 19.642,21.037 19.392,22.016C19.143,22.996 19.018,23.995 19.018,25.015C19.018,26.035 19.143,27.034 19.392,28.014C19.642,28.993 20.027,29.868 20.547,30.638C21.067,31.407 21.741,32.022 22.571,32.482C23.401,32.942 24.385,33.171 25.525,33.171C26.364,33.171 27.104,33.027 27.744,32.737C28.384,32.447 28.933,32.047 29.393,31.537C29.853,31.027 30.213,30.433 30.473,29.753C30.733,29.073 30.902,28.344 30.982,27.564L34.641,27.564C34.561,28.843 34.286,30.013 33.816,31.072C33.346,32.132 32.712,33.047 31.912,33.816C31.112,34.586 30.173,35.181 29.093,35.6C28.014,36.02 26.824,36.23 25.525,36.23C23.925,36.23 22.491,35.935 21.222,35.346C19.952,34.756 18.878,33.951 17.998,32.932C17.118,31.912 16.444,30.723 15.974,29.363C15.504,28.004 15.269,26.554 15.269,25.015C15.269,23.496 15.504,22.056 15.974,20.697C16.444,19.337 17.118,18.148 17.998,17.128C18.878,16.109 19.952,15.299 21.222,14.699C22.491,14.1 23.925,13.8 25.525,13.8C26.724,13.8 27.854,13.965 28.913,14.295C29.973,14.624 30.907,15.104 31.717,15.734C32.527,16.364 33.181,17.128 33.681,18.028C34.181,18.928 34.491,19.957 34.611,21.117L30.862,21.117Z" style="fill-rule:nonzero;"/>
        </g>
        <g transform="matrix(1,0,0,1,0,-4.737)">
            <path d="M15.419,45.674L34.581,45.674" style="fill:none;stroke:black;stroke-width:2px;"/>
        </g>
    </g>
</svg>
